X: 24279
T: Lost And Found, The
R: jig
M: 6/8
K: Gmajor
G3 dGG|edB dBA|G3 dBG|edB AFA|
G3 Bdd|edB def|gfe dBA|Bee dBA|
DGG Bdd|edB dBA|.G.G.G dBG|edB AFA|
DGG dGG|edB def|gfe dBA|Bee def||
g2a bge|f2g afd|g2a bge|edB GBd|
g2a bge|f2g afa|bc'b age|edB dBA|
g2a bge|f3 afd|g2a bge|edB GB/c/d|
g2a bge|f2g afa|bc'b age|edB dBA||

